public/images/vika/g_01.svg

<svg width="800" height="465" fill="none" xmlns="http://www.w3.org/2000/svg"><g clip-path="url(#clip0_628_1204)"><path fill="#001D3D" d="M0 0H800V465H0z"/><path fill-rule="evenodd" clip-rule="evenodd" d="M174.371 225.878c-7.969-5.894-17.685-16.299-16.923-31.552.557-11.117 10.157-23.564 20.827-34.079 3.917 6.679 7.719 12.121 11.348 16.624 1.779-5.031 3.136-8.64 3.136-8.64l20.481 18.746s-.992 4.468-2.752 9.084c9.735 6.736 15.399 9.468 14.062 23.508-2.56 26.84-22.619 59.645 8.532 75.834 7.917 4.113 14.951 4.05 21.031 1.639l.147-.057 39.945 138.267H182.416l.218-7.388.352-.14 2.771-1.144 2.688-1.106.141-.064.179-.077 2.861-1.303 2.682-1.214.115-.064.154-.071 2.841-1.457 2.567-1.31.134-.076.077-.045 1.293-.729 1.197-.683.083-.052.096-.057 1.248-.767 1.14-.703.07-.045.083-.051 1.184-.805 1.069-.722.058-.045.064-.045 1.113-.843.98-.735.044-.038.052-.039 1.024-.882.877-.747.032-.032.038-.032.922-.92.755-.755.025-.032.026-.025.807-.971.62-.748.013-.019.019-.019.672-1.042.461-.716.007-.013.012-.019.538-1.182.282-.614v-.006a9.608 9.608 0 0 0 .467-1.834l1.114-1.125c8.493-8.557 12.135-16.085 13.101-22.769 1.415-9.663-2.752-17.581-5.952-24.342-1.082-2.275-2.055-4.422-2.669-6.467l-1.338-9.586-.166-1.118-.071-.492-.704-4.576-1.453-9.573-.396-2.486-.308-2.019-.019-.064c-5.728-36.825-15.13-94.581-18.094-112.708l-.921-5.637s-2.369 1.131-5.671 3.217l-.109.07-.301.201-2.054 1.349-.378.276-.32.214 2.471-2.67c-.007-.002-2.477 2.693-2.477 2.693-2.535 1.771-5.287 3.968-7.828 6.523l-.186.185c-3.872 3.887-7.207 8.608-8.467 13.956z" fill="#001D3D" stroke="#fff" stroke-width=".5"/><path fill-rule="evenodd" clip-rule="evenodd" d="M200.612 205.501c2.964 18.127 12.366 75.883 18.094 112.708l.723 4.569 2.394 15.759 1.338 9.586.057.192c.615 1.981 1.562 4.07 2.612 6.275.352.735.71 1.489 1.075 2.256.346.722.685 1.451 1.031 2.198.243.544.486 1.093.729 1.649.787 1.834 1.523 3.751 2.106 5.752l.051.179.211.773c.301 1.131.544 2.288.724 3.47l.032.262c.198 1.419.3 2.882.275 4.39a33.072 33.072 0 0 1-.077 1.572 22.953 22.953 0 0 1-.173 1.611l-.032.23c-.96 6.691-4.602 14.219-13.101 22.769l-1.114 1.125-.467 1.834-.282.62-.55 1.201-.468.729-.691 1.061-.634.767-.832.997-.78.786-.961.952-.908.779-1.076.921-1.024.773-1.177.888-1.127.767-1.267.856-1.21.748-1.344.824-1.28.735-1.37.774-2.701 1.386-2.995 1.528-2.797 1.278-3.04 1.38-2.829 1.17-3.124 1.284c-11.277 4.454-20.916 7.17-20.916 7.17s-19.957-15.414-17.492-16.187c9.351-62.129 26.452-177.231 30.139-192.948l.064-.271c1.306-5.245 4.602-9.88 8.41-13.706l.186-.185c2.541-2.555 5.293-4.752 7.828-6.523l.326-.237 2.432-1.625.41-.271.493-.309c3.046-1.889 5.178-2.908 5.178-2.908l.921 5.637z" fill="#001D3D" stroke="#fff" stroke-width=".5"/><path fill-rule="evenodd" clip-rule="evenodd" d="M147.399 423.135s-23.675 3.208-28.475 3.208c-4.801 0-10.241-1.598-13.761 4.793-3.52 6.391 51.178-.364 51.178-.364l-8.942-7.637z" fill="#001D3D" stroke="#fff" stroke-width=".5"/><path fill-rule="evenodd" clip-rule="evenodd" d="M151.393 426.548l-16.148 9.7 6.08 5.752 20.392-6.966-10.324-8.486z" fill="#001D3D" stroke="#fff" stroke-width=".5"/><path fill-rule="evenodd" clip-rule="evenodd" d="M453.416 407.913c2.092 5.183 2.745 10.742 1.011 16.475-3.648 12.071-13.422 11.432-13.422 11.432l-141.039-1.208-.013-.14c-.288-2.882-4.64-49.188 9.825-59.509 7.584-5.406 28.821-11.931 28.821-11.931l80.843 12.097s26.203 13.868 33.884 32.56l.09.224z" fill="#fff" stroke="#fff" stroke-width=".5"/><path fill-rule="evenodd" clip-rule="evenodd" d="M560.516 390.192c17.58-4.96 52.908-10.247 64.603-8.91 13.134 1.498 34.043 4.732 40.931 29.304 6.783 24.19-27.715 23.43-33.486 23.399-5.046-.031-74.613 6.141-87.093-15.401l24.296 1.52 3.742-23.138-12.993-6.774zM281.91 60.714c7.015.05 13.46 1.837 14.235 2.059h.006l.077.067.941 26.069 1.51 40.357a41.526 41.526 0 0 1-4.128 3.805l-2.093 1.573a37.112 37.112 0 0 1-4.07 2.523l-.282.148a39.472 39.472 0 0 1-18.881 4.79c-7.898 0-15.284-2.32-21.589-6.378l-1.766-1.166-7.668-27.466s.576-.587 1.562-1.64l.544-.587.428-.466.858-.937c.211-.238.442-.487.672-.746.167-.183.333-.373.506-.566.307-.344.621-.703.947-1.076l.711-.809.524-.61 4.129-4.971c3.321-4.143 6.848-8.94 9.722-13.778 2.138-3.543 3.91-7.113 4.999-10.453.403-1.234.94-2.322 1.6-3.269 1.088-1.61 2.496-2.85 4.102-3.798.672-.39 1.376-.73 2.106-1.016.749-.302 1.53-.555 2.336-.74 1.466-.393 3.002-.638 4.551-.793l2.733-.125c.115-.002.23-.002.345-.002l.333.002z" fill="#001D3D" stroke="#fff" stroke-width=".5"/><path fill-rule="evenodd" clip-rule="evenodd" d="M294.295 174.162c-9.556 5.022-20.411 7.398-31.4 7.866l-15.259-46.296c6.304 4.055 13.697 6.373 21.589 6.373 6.79 0 13.21-1.717 18.881-4.79l-5.895 7.74c-6.4 8.627-1.6 21.728 5.12 30.675.314.416.647.8 1.018 1.149a59.628 59.628 0 0 0 5.946-2.717z" fill="#001D3D" stroke="#fff" stroke-width=".5"/><path fill-rule="evenodd" clip-rule="evenodd" d="M298.679 129.272l1.376 36.024.212 5.268-.064.039-2.484 1.607-.755.455-2.086 1.181-.583.316a59.628 59.628 0 0 1-5.946 2.717 9.035 9.035 0 0 1-1.018-1.149c-6.72-8.947-11.52-22.048-5.12-30.675l5.895-7.74 1.798-.997.256-.169a33.75 33.75 0 0 0 2.298-1.505l6.221-5.372z" fill="#fff" stroke="#fff" stroke-width=".5"/><path fill-rule="evenodd" clip-rule="evenodd" d="M387.178 369.608l.038.134-.633.473-47.984-7.183s-21.237 6.525-28.821 11.931c-13.064 9.324-10.779 48-10.004 57.521l.192 2.129-5.761.639-39.945-138.267 3.361-1.454c16.89-7.859 34.773-23.986 34.773-23.986l-29.506-89.535c8.769-.368 17.454-1.95 25.461-5.131l.096-.039c4.154-1.64 8.122-3.718 11.822-6.276l.422 10.238.064 1.671c1.389 35.057 2.829 68.029 3.802 83.108 3.245-.579 17.038-7.849 30.773-20.21l7.738 38.145 44.112 86.092z" fill="#001D3D" stroke="#fff" stroke-width=".5"/><path fill-rule="evenodd" clip-rule="evenodd" d="M335.008 245.659c-13.626 12.185-27.234 19.348-30.453 19.922-1.088-16.777-2.746-55.706-4.288-95.017l-.212-5.268-1.376-36.024c6.094-6.349 6.094-6.351 0-.006l-1.51-40.357-.941-26.069c3.802 3.376.934.798 0-.036v-.008l-.019-.004c-5.076-4.533-1.748-1.53-.058-.018l-.006-.001c-.8-.23-7.649-2.127-14.913-2.058l-2.733.125c-1.549.132-3.092.374-4.551.792-.8.204-1.581.452-2.336.74-.73.292-1.434.63-2.106 1.017-1.613.94-3.021 2.179-4.102 3.799-.66.946-1.197 2.034-1.601 3.268-1.088 3.34-2.86 6.91-4.998 10.453-4.135 6.93-9.594 13.79-13.851 18.75-3.872 4.5-6.752 7.436-6.752 7.436l7.668 27.466 1.766 1.166 44.758 135.818s-17.883 16.127-34.773 23.986l-1.965.849.249-.116-1.645.721-.147.057c-6.08 2.411-13.114 2.474-21.031-1.639-31.151-16.189-11.092-48.994-8.532-75.834 1.619-16.982-7.009-17.421-20.686-28.413l-3.681-3.096-2.189-2.025-1.958-1.945-.256-.262c-5.325-5.462-11.137-12.785-17.217-23.087l-.288-.494-2.368-4.158c-28.162-51.124 28.161-61.35 28.161-61.35S253.992 27 280.445 27c21.351 0 18.516 23.312 16.628 32.31 1.261-1.405 4.122-2.435 10.465-1.21 13.229 2.557 8.96 22.58 9.818 35.362 36.584 15.55 11.52 46.438 11.52 46.438l.954.711.25.189c5.485 4.182 27.912 22.641 32.13 47.337l.39 2.752c1.223 10.434-.947 21.889-8.98 33.792a83.727 83.727 0 0 1-3.942 5.395l.985-1.28-3.245 4.088-.492.613-2.817 3.167-1.638 1.758-1.703 1.749-.448.452a134.736 134.736 0 0 1-4.992 4.747l-.32.289zm4.212-3.93l1.548-1.557-1.548 1.557zm76.203 74.735c5.658.863 11.431 2.812 17.031 5.675 17.493 8.947 44.374 33.231 44.374 33.231l66.142 20.871-27.31 43.884-62.232-12.206-.012-.006c-7.559-18.808-33.974-32.784-33.974-32.784l-32.053-4.793-.173-.594-.032-.115 31.625-13.899c1.177-4.046-.372-19.242-3.386-39.264z" fill="#fff" stroke="#fff" stroke-width=".5"/><path fill-rule="evenodd" clip-rule="evenodd" d="M387.184 369.627l-44.118-86.111-7.738-38.146a111.11 111.11 0 0 0 5.44-5.198l1.197-1.207.506-.544.845-.865.793-.892.551-.596-.551.596 2.817-3.167.492-.613-.102.13c.57-.685 1.139-1.379 1.696-2.081l.666-.857a83.727 83.727 0 0 0 3.942-5.395c8.033-11.903 10.203-23.358 8.98-33.792l-.39-2.752c-4.289-25.087-27.362-43.738-32.38-47.526 6.093-4.497 13.793-8.095 22.837-5.994 18.35 4.26 31.048 34.049 34.562 44.734 7.053 21.406 21.173 90.646 28.034 136.046l.16 1.067c3.014 20.022 4.563 35.218 3.386 39.264l-31.625 13.899z" fill="#001D3D" stroke="#fff" stroke-width=".5"/><path d="M288.573 107.036c6.363 0 11.521-4.864 11.521-10.864 0-6-5.158-10.864-11.521-10.864s-11.521 4.864-11.521 10.864c0 6 5.158 10.864 11.521 10.864zm-32.002 0c6.363 0 11.521-4.864 11.521-10.864 0-6-5.158-10.864-11.521-10.864s-11.521 4.864-11.521 10.864c0 6 5.158 10.864 11.521 10.864z" fill="#001D3D" stroke="#fff" stroke-width=".5"/><path fill-rule="evenodd" clip-rule="evenodd" d="M411.435 358.974l23.707 10.608 2.548 18.233-18.248-12.686-32.258-5.502 24.251-10.653z" fill="#001D3D" stroke="#fff" stroke-width=".5"/><path fill-rule="evenodd" clip-rule="evenodd" d="M147.354 398.008l35.279 29.856 17.486-8.026-49.302-44.894-3.463 23.064zm224.367-58.557l41.09-39.481 2.452 15.427-36.636 37.525-6.906-13.471zm197.011 54.978s50.851-7.592 62.372-.563c11.521 7.03 21.121 18.533 17.921 28.438-3.2 9.906-85.452-1.137-85.292-4.173l6.01.505 3.2-22.047-4.211-2.16z" fill="#fff" stroke="#fff" stroke-width=".5"/><path fill-rule="evenodd" clip-rule="evenodd" d="M589.757 401.784l-2.816-5.151-4.16 1.279 4.339 8.199-3.987 6.544 3.194 2.952 3.155-5.029 2.259 4.269 4.801-.64-4.346-7.949 4.314-6.877-2.957-3.828-3.796 6.231zm16.321 1.278l-2.816-5.15-4.16 1.278 4.339 8.199-3.987 6.544 3.194 2.952 3.155-5.029 2.259 4.269 4.801-.639-4.346-7.95 4.314-6.877-2.957-3.827-3.796 6.23z" fill="#001D3D"/><path fill-rule="evenodd" clip-rule="evenodd" d="M519.231 414.393l21.39-34.381 32.322 16.577s4.557 5.387 3.213 12.314c-1.478 7.663-6.413 9.733-6.413 9.733l-50.512-4.243z" fill="#001D3D" stroke="#fff" stroke-width=".5"/><path fill-rule="evenodd" clip-rule="evenodd" d="M360.744 318.011l-97.133-25.862-8.531 4.26 2.989 10.648 102.675 10.954zm3.821 7.458l-99.245 5.879 2.132 7.668 97.113-13.547zm2.906 5.681l-91.27 41.519 4.269 13.209 87.001-54.728z" fill="#fff"/></g><defs><clipPath id="clip0_628_1204"><path fill="#fff" d="M0 0H800V465H0z"/></clipPath></defs></svg>

<svg width="800" height="465" viewBox="0 0 800 465" fill="none" xmlns="http://www.w3.org/2000/svg">
<g clip-path="url(#clip0_628_1204)">
<rect width="800" height="465" fill="#001D3D"/>
<path fill-rule="evenodd" clip-rule="evenodd" d="M174.371 225.878C166.402 219.984 156.686 209.579 157.448 194.326C158.005 183.209 167.605 170.762 178.275 160.247C182.192 166.926 185.994 172.368 189.623 176.871C191.402 171.84 192.759 168.231 192.759 168.231L213.24 186.977C213.24 186.977 212.248 191.445 210.488 196.061C220.223 202.797 225.887 205.529 224.55 219.569C221.99 246.409 201.931 279.214 233.082 295.403C240.999 299.516 248.033 299.453 254.113 297.042L254.26 296.985L294.205 435.252H182.416L182.634 427.864L182.986 427.724L185.757 426.58L188.445 425.474L188.586 425.41L188.765 425.333L191.626 424.03L194.308 422.816L194.423 422.752L194.577 422.681L197.418 421.224L199.985 419.914L200.119 419.838L200.196 419.793L201.489 419.064L202.686 418.381L202.769 418.329L202.865 418.272L204.113 417.505L205.253 416.802L205.323 416.757L205.406 416.706L206.59 415.901L207.659 415.179L207.717 415.134L207.781 415.089L208.894 414.246L209.874 413.511L209.918 413.473L209.97 413.434L210.994 412.552L211.871 411.805L211.903 411.773L211.941 411.741L212.863 410.821L213.618 410.066L213.643 410.034L213.669 410.009L214.476 409.038L215.096 408.29L215.109 408.271L215.128 408.252L215.8 407.21L216.261 406.494L216.268 406.481L216.28 406.462L216.818 405.28L217.1 404.666V404.66C217.317 404.053 217.477 403.439 217.567 402.826L218.681 401.701C227.174 393.144 230.816 385.616 231.782 378.932C233.197 369.269 229.03 361.351 225.83 354.59C224.748 352.315 223.775 350.168 223.161 348.123L221.823 338.537L221.657 337.419L221.586 336.927L220.882 332.351L219.429 322.778L219.033 320.292L218.725 318.273L218.706 318.209C212.978 281.384 203.576 223.628 200.612 205.501L199.691 199.864C199.691 199.864 197.322 200.995 194.02 203.081L193.911 203.151L193.61 203.352L191.556 204.701L191.178 204.977L190.858 205.191L193.329 202.521C193.322 202.519 190.852 205.214 190.852 205.214C188.317 206.985 185.565 209.182 183.024 211.737L182.838 211.922C178.966 215.809 175.631 220.53 174.371 225.878Z" fill="#001D3D" stroke="white" stroke-width="0.5"/>
<path fill-rule="evenodd" clip-rule="evenodd" d="M200.612 205.501C203.576 223.628 212.978 281.384 218.706 318.209L219.429 322.778L221.823 338.537L223.161 348.123L223.218 348.315C223.833 350.296 224.78 352.385 225.83 354.59C226.182 355.325 226.54 356.079 226.905 356.846C227.251 357.568 227.59 358.297 227.936 359.044C228.179 359.588 228.422 360.137 228.665 360.693C229.452 362.527 230.188 364.444 230.771 366.445L230.822 366.624L231.033 367.397C231.334 368.528 231.577 369.685 231.757 370.867L231.789 371.129C231.987 372.548 232.089 374.011 232.064 375.519C232.051 376.043 232.025 376.567 231.987 377.091C231.949 377.622 231.891 378.165 231.814 378.702L231.782 378.932C230.822 385.623 227.18 393.151 218.681 401.701L217.567 402.826L217.1 404.66L216.818 405.28L216.268 406.481L215.8 407.21L215.109 408.271L214.475 409.038L213.643 410.035L212.863 410.821L211.902 411.773L210.994 412.552L209.918 413.473L208.894 414.246L207.717 415.134L206.59 415.901L205.323 416.757L204.113 417.505L202.769 418.329L201.489 419.064L200.119 419.838L197.418 421.224L194.423 422.752L191.626 424.03L188.586 425.41L185.757 426.58L182.633 427.864C171.356 432.318 161.717 435.034 161.717 435.034C161.717 435.034 141.76 419.62 144.225 418.847C153.576 356.718 170.677 241.616 174.364 225.899L174.428 225.628C175.734 220.383 179.03 215.748 182.838 211.922L183.024 211.737C185.565 209.182 188.317 206.985 190.852 205.214L191.178 204.977L193.61 203.352L194.02 203.081L194.513 202.772C197.559 200.883 199.691 199.864 199.691 199.864L200.612 205.501Z" fill="#001D3D" stroke="white" stroke-width="0.5"/>
<path fill-rule="evenodd" clip-rule="evenodd" d="M147.399 423.135C147.399 423.135 123.724 426.343 118.924 426.343C114.123 426.343 108.683 424.745 105.163 431.136C101.643 437.527 156.341 430.772 156.341 430.772L147.399 423.135Z" fill="#001D3D" stroke="white" stroke-width="0.5"/>
<path fill-rule="evenodd" clip-rule="evenodd" d="M151.393 426.548L135.245 436.248L141.325 442L161.717 435.034L151.393 426.548Z" fill="#001D3D" stroke="white" stroke-width="0.5"/>
<path fill-rule="evenodd" clip-rule="evenodd" d="M453.416 407.913C455.508 413.096 456.161 418.655 454.427 424.388C450.779 436.459 441.005 435.82 441.005 435.82L299.966 434.612L299.953 434.472C299.665 431.59 295.313 385.284 309.778 374.963C317.362 369.557 338.599 363.032 338.599 363.032L419.442 375.129C419.442 375.129 445.645 388.997 453.326 407.689L453.416 407.913Z" fill="white" stroke="white" stroke-width="0.5"/>
<path fill-rule="evenodd" clip-rule="evenodd" d="M560.516 390.192C578.096 385.232 613.424 379.945 625.119 381.282C638.253 382.78 659.162 386.014 666.05 410.586C672.833 434.776 638.335 434.016 632.564 433.985C627.518 433.954 557.951 440.126 545.471 418.584L569.767 420.104L573.509 396.966L560.516 390.192Z" fill="#001D3D" stroke="white" stroke-width="0.5"/>
<path fill-rule="evenodd" clip-rule="evenodd" d="M281.91 60.7145C288.925 60.7631 295.37 62.5505 296.145 62.7729L296.151 62.7736L296.228 62.84L297.169 88.909L298.679 129.266C297.386 130.633 296.004 131.901 294.551 133.071L292.458 134.644C291.159 135.568 289.796 136.418 288.388 137.167L288.106 137.315C282.435 140.388 276.016 142.105 269.225 142.105C261.327 142.105 253.941 139.785 247.636 135.727L245.87 134.561L238.202 107.095C238.202 107.095 238.778 106.508 239.764 105.455L240.308 104.868L240.736 104.402L241.594 103.465C241.805 103.227 242.036 102.978 242.266 102.719C242.433 102.536 242.599 102.346 242.772 102.153C243.079 101.809 243.393 101.45 243.719 101.077L244.43 100.268L244.954 99.6585L249.083 94.6867C252.404 90.5443 255.931 85.7476 258.805 80.9087C260.943 77.3657 262.715 73.796 263.804 70.4556C264.207 69.2216 264.744 68.134 265.404 67.1875C266.492 65.5771 267.9 64.3373 269.506 63.389C270.178 62.9985 270.882 62.6592 271.612 62.3729C272.361 62.0706 273.142 61.8175 273.948 61.6322C275.414 61.2405 276.95 60.9951 278.499 60.8404L281.232 60.7152C281.347 60.7133 281.462 60.7133 281.577 60.7133L281.91 60.7145Z" fill="#001D3D" stroke="white" stroke-width="0.5"/>
<path fill-rule="evenodd" clip-rule="evenodd" d="M294.295 174.162C284.739 179.184 273.884 181.56 262.895 182.028L247.636 135.732C253.94 139.787 261.333 142.105 269.225 142.105C276.015 142.105 282.435 140.388 288.106 137.315L282.211 145.055C275.811 153.682 280.611 166.783 287.331 175.73C287.645 176.146 287.978 176.53 288.349 176.879C290.378 176.081 292.362 175.179 294.295 174.162Z" fill="#001D3D" stroke="white" stroke-width="0.5"/>
<path fill-rule="evenodd" clip-rule="evenodd" d="M298.679 129.272L300.055 165.296L300.267 170.564L300.203 170.603L297.719 172.21L296.964 172.665L294.878 173.846L294.295 174.162C292.362 175.179 290.378 176.081 288.349 176.879C287.978 176.53 287.645 176.146 287.331 175.73C280.611 166.783 275.811 153.682 282.211 145.055L288.106 137.315L289.904 136.318L290.16 136.149C290.948 135.679 291.716 135.173 292.458 134.644L298.679 129.272Z" fill="white" stroke="white" stroke-width="0.5"/>
<path fill-rule="evenodd" clip-rule="evenodd" d="M387.178 369.608L387.216 369.742L386.583 370.215L338.599 363.032C338.599 363.032 317.362 369.557 309.778 374.963C296.714 384.287 298.999 422.963 299.774 432.484L299.966 434.613L294.205 435.252L254.26 296.985L257.621 295.531C274.511 287.672 292.394 271.545 292.394 271.545L262.888 182.01C271.657 181.642 280.342 180.06 288.349 176.879L288.445 176.84C292.599 175.2 296.567 173.122 300.267 170.564L300.689 180.802L300.753 182.473C302.142 217.53 303.582 250.502 304.555 265.581C307.8 265.002 321.593 257.732 335.328 245.371L343.066 283.516L387.178 369.608Z" fill="#001D3D" stroke="white" stroke-width="0.5"/>
<path fill-rule="evenodd" clip-rule="evenodd" d="M335.008 245.659C321.382 257.844 307.774 265.007 304.555 265.581C303.467 248.804 301.809 209.875 300.267 170.564L300.055 165.296L298.679 129.272C304.773 122.923 304.773 122.921 298.679 129.266L297.169 88.909L296.228 62.8401C300.03 66.2162 297.162 63.6376 296.228 62.8043V62.796L296.209 62.7922C291.133 58.2587 294.461 61.2629 296.151 62.7736L296.145 62.773C295.345 62.5429 288.496 60.6462 281.232 60.7152L278.499 60.8405C276.95 60.9721 275.407 61.2137 273.948 61.6323C273.148 61.8361 272.367 62.0841 271.612 62.3729C270.882 62.6637 270.178 63.0011 269.506 63.389C267.893 64.3284 266.485 65.5676 265.404 67.1876C264.744 68.134 264.207 69.2217 263.803 70.4557C262.715 73.796 260.943 77.3658 258.805 80.9087C254.67 87.8393 249.211 94.6989 244.954 99.6586C241.082 104.159 238.202 107.095 238.202 107.095L245.87 134.561L247.636 135.727L292.394 271.545C292.394 271.545 274.511 287.672 257.621 295.531L255.656 296.38C255.739 296.342 255.822 296.303 255.905 296.264L254.26 296.985L254.113 297.042C248.033 299.453 240.999 299.516 233.082 295.403C201.931 279.214 221.99 246.409 224.55 219.569C226.169 202.587 217.541 202.148 203.864 191.156L200.183 188.06C199.454 187.385 198.724 186.71 197.994 186.035L196.036 184.09L195.78 183.828C190.455 178.366 184.643 171.043 178.563 160.741L178.275 160.247L175.907 156.089C147.745 104.965 204.068 94.7398 204.068 94.7398C204.068 94.7398 253.992 27 280.445 27C301.796 27 298.961 50.3121 297.073 59.3093C298.334 57.9047 301.195 56.8752 307.538 58.1009C320.767 60.6571 316.498 80.6806 317.356 93.4617C353.94 109.012 328.876 139.9 328.876 139.9L329.83 140.611L330.08 140.8C335.565 144.982 357.992 163.441 362.21 188.137L362.6 190.889C363.823 201.323 361.653 212.778 353.62 224.681C352.372 226.536 351.06 228.339 349.678 230.076L350.663 228.796L347.418 232.884L346.926 233.497L344.109 236.664L342.471 238.422L340.768 240.171L340.32 240.623C338.669 242.277 336.999 243.859 335.328 245.37L335.008 245.659ZM339.22 241.729L340.768 240.172L339.22 241.729Z" fill="white" stroke="white" stroke-width="0.5"/>
<path fill-rule="evenodd" clip-rule="evenodd" d="M415.423 316.464C421.081 317.327 426.854 319.276 432.454 322.139C449.947 331.086 476.828 355.37 476.828 355.37L542.97 376.241L515.66 420.125L453.428 407.919L453.416 407.913C445.857 389.105 419.442 375.129 419.442 375.129L387.389 370.336L387.216 369.742L387.184 369.627L418.809 355.728C419.986 351.682 418.437 336.486 415.423 316.464Z" fill="white" stroke="white" stroke-width="0.5"/>
<path fill-rule="evenodd" clip-rule="evenodd" d="M387.184 369.627L343.066 283.516L335.328 245.37C337.159 243.731 338.983 242.002 340.768 240.172L341.965 238.965L342.471 238.421L343.316 237.556L344.109 236.664L344.66 236.068L344.109 236.664L346.926 233.497L347.418 232.884L347.316 233.014C347.886 232.329 348.455 231.635 349.012 230.933L349.678 230.076C351.06 228.339 352.372 226.536 353.62 224.681C361.653 212.778 363.823 201.323 362.6 190.889L362.21 188.137C357.921 163.05 334.848 144.399 329.83 140.611C335.923 136.114 343.623 132.516 352.667 134.617C371.017 138.877 383.715 168.666 387.229 179.351C394.282 200.757 408.402 269.997 415.263 315.397L415.423 316.464C418.437 336.486 419.986 351.682 418.809 355.728L387.184 369.627Z" fill="#001D3D" stroke="white" stroke-width="0.5"/>
<path d="M288.573 107.036C294.936 107.036 300.094 102.172 300.094 96.1723C300.094 90.1723 294.936 85.3083 288.573 85.3083C282.21 85.3083 277.052 90.1723 277.052 96.1723C277.052 102.172 282.21 107.036 288.573 107.036Z" fill="#001D3D" stroke="white" stroke-width="0.5"/>
<path d="M256.571 107.036C262.934 107.036 268.092 102.172 268.092 96.1723C268.092 90.1723 262.934 85.3083 256.571 85.3083C250.208 85.3083 245.05 90.1723 245.05 96.1723C245.05 102.172 250.208 107.036 256.571 107.036Z" fill="#001D3D" stroke="white" stroke-width="0.5"/>
<path fill-rule="evenodd" clip-rule="evenodd" d="M411.435 358.974L435.142 369.582L437.69 387.815L419.442 375.129L387.184 369.627L411.435 358.974Z" fill="#001D3D" stroke="white" stroke-width="0.5"/>
<path fill-rule="evenodd" clip-rule="evenodd" d="M147.354 398.008L182.633 427.864L200.119 419.838L150.817 374.944L147.354 398.008Z" fill="white" stroke="white" stroke-width="0.5"/>
<path fill-rule="evenodd" clip-rule="evenodd" d="M371.721 339.451L412.811 299.97L415.263 315.397L378.627 352.922L371.721 339.451Z" fill="white" stroke="white" stroke-width="0.5"/>
<path fill-rule="evenodd" clip-rule="evenodd" d="M568.732 394.429C568.732 394.429 619.583 386.837 631.104 393.866C642.625 400.896 652.225 412.399 649.025 422.304C645.825 432.21 563.573 421.167 563.733 418.131L569.743 418.636L572.943 396.589L568.732 394.429Z" fill="white" stroke="white" stroke-width="0.5"/>
<path fill-rule="evenodd" clip-rule="evenodd" d="M589.757 401.784L586.941 396.633L582.781 397.912L587.12 406.111L583.133 412.655L586.327 415.607L589.482 410.578L591.741 414.847L596.542 414.207L592.196 406.258L596.51 399.381L593.553 395.553L589.757 401.784Z" fill="#001D3D"/>
<path fill-rule="evenodd" clip-rule="evenodd" d="M606.078 403.062L603.262 397.912L599.102 399.19L603.441 407.389L599.454 413.933L602.648 416.885L605.803 411.856L608.062 416.125L612.863 415.486L608.517 407.536L612.831 400.659L609.874 396.832L606.078 403.062Z" fill="#001D3D"/>
<path fill-rule="evenodd" clip-rule="evenodd" d="M519.231 414.393L540.621 380.012L572.943 396.589C572.943 396.589 577.5 401.976 576.156 408.903C574.678 416.566 569.743 418.636 569.743 418.636L519.231 414.393Z" fill="#001D3D" stroke="white" stroke-width="0.5"/>
<path fill-rule="evenodd" clip-rule="evenodd" d="M360.744 318.011L263.611 292.149L255.08 296.409L258.069 307.057L360.744 318.011Z" fill="white"/>
<path fill-rule="evenodd" clip-rule="evenodd" d="M364.565 325.469L265.32 331.348L267.452 339.016L364.565 325.469Z" fill="white"/>
<path fill-rule="evenodd" clip-rule="evenodd" d="M367.471 331.15L276.201 372.669L280.47 385.878L367.471 331.15Z" fill="white"/>
</g>
<defs>
<clipPath id="clip0_628_1204">
<rect width="800" height="465" fill="white"/>
</clipPath>
</defs>
</svg>
